X:1
T:Strathearn
T:Strathearn
T:Niel Gow
C:Niel Gow
L:1/8
Q:1/8=128
M:4/4
K:Gmin
V:1 treble 
V:1
|: g | G<G d>c d<f g2 | f>c d<f c>B A<F | G<G d>c Ac dg | f>g aA G2 Gg | G<G d>c d<f g2 | %6
 f>c d<f c>B A<F | G<G d>c Ac dg | f>g aA G2 GA | Gg g>f g<a g2 | f>g ag fd fc | dg g>f df ga | %12
 f>g aA G2 G>A | Gg g>f ga g2 | f>g ag fd fc | dc d<f gf g<a | f>g aA G2- G :| %17

